assets/img/binoculars.svg

<svg 
 xmlns="http://www.w3.org/2000/svg"
 xmlns:xlink="http://www.w3.org/1999/xlink"
 width="66px" height="66px">
<defs>
<linearGradient id="PSgrad_0" x1="0%" x2="0%" y1="100%" y2="0%">
  <stop offset="0%" stop-color="rgb(255,255,255)" stop-opacity="1" />
  <stop offset="76%" stop-color="rgb(189,228,244)" stop-opacity="1" />
  <stop offset="100%" stop-color="rgb(123,200,233)" stop-opacity="1" />
</linearGradient>
<linearGradient id="PSgrad_1" x1="0%" x2="0%" y1="100%" y2="0%">
  <stop offset="0%" stop-color="rgb(123,200,233)" stop-opacity="1" />
  <stop offset="24%" stop-color="rgb(189,228,244)" stop-opacity="1" />
  <stop offset="100%" stop-color="rgb(255,255,255)" stop-opacity="1" />
</linearGradient>

</defs>
<path fill-rule="evenodd"  opacity="0.369" fill="rgb(255, 255, 255)"
 d="M38.500,21.000 C50.926,21.000 61.000,31.074 61.000,43.500 C61.000,55.926 50.926,66.000 38.500,66.000 C26.074,66.000 16.000,55.926 16.000,43.500 C16.000,31.074 26.074,21.000 38.500,21.000 Z"/>
<path fill="url(#PSgrad_0)"
 d="M38.500,21.000 C50.926,21.000 61.000,31.074 61.000,43.500 C61.000,55.926 50.926,66.000 38.500,66.000 C26.074,66.000 16.000,55.926 16.000,43.500 C16.000,31.074 26.074,21.000 38.500,21.000 Z"/>
<path fill-rule="evenodd"  opacity="0.588" fill="rgb(255, 255, 255)"
 d="M11.000,0.000 C17.075,0.000 22.000,4.925 22.000,11.000 C22.000,17.075 17.075,22.000 11.000,22.000 C4.925,22.000 0.000,17.075 0.000,11.000 C0.000,4.925 4.925,0.000 11.000,0.000 Z"/>
<path fill="url(#PSgrad_1)"
 d="M11.000,0.000 C17.075,0.000 22.000,4.925 22.000,11.000 C22.000,17.075 17.075,22.000 11.000,22.000 C4.925,22.000 0.000,17.075 0.000,11.000 C0.000,4.925 4.925,0.000 11.000,0.000 Z"/>
<path fill-rule="evenodd"  fill="rgb(0, 111, 235)"
 d="M36.277,47.000 C30.661,47.000 26.040,42.599 25.591,37.020 L23.409,37.020 C22.961,42.599 18.339,47.000 12.723,47.000 C6.810,47.000 2.000,42.123 2.000,36.129 C2.000,34.695 2.276,33.326 2.775,32.071 C2.776,32.070 2.776,32.069 2.776,32.068 L7.718,16.383 C8.732,13.163 11.653,11.000 14.987,11.000 C18.036,11.000 20.673,12.823 21.894,15.451 C22.558,14.758 23.486,14.327 24.511,14.327 C25.537,14.327 26.464,14.758 27.128,15.451 C28.349,12.823 30.986,11.000 34.035,11.000 C37.369,11.000 40.290,13.163 41.305,16.383 L46.246,32.068 C46.260,32.113 46.270,32.159 46.277,32.204 C46.743,33.422 47.000,34.746 47.000,36.129 C47.000,42.123 42.190,47.000 36.277,47.000 ZM20.860,18.737 C20.860,15.453 18.226,12.782 14.987,12.782 C12.421,12.782 10.173,14.447 9.392,16.925 L6.011,27.657 C7.850,26.157 10.184,25.257 12.723,25.257 C15.974,25.257 18.892,26.733 20.860,29.057 L20.860,18.737 ZM12.723,27.040 C7.779,27.040 3.758,31.117 3.758,36.129 C3.758,41.140 7.779,45.218 12.723,45.218 C17.666,45.218 21.688,41.140 21.688,36.129 C21.688,31.117 17.666,27.040 12.723,27.040 ZM26.404,18.737 C26.404,18.559 26.404,18.090 26.404,18.028 C26.404,16.970 25.555,16.109 24.511,16.109 C23.467,16.109 22.618,16.970 22.618,18.028 C22.618,18.090 22.618,18.559 22.618,18.737 L22.618,28.658 C23.170,28.317 23.819,28.120 24.511,28.120 C25.204,28.120 25.852,28.317 26.404,28.658 L26.404,18.737 ZM26.404,31.822 C26.404,30.763 25.555,29.902 24.511,29.902 C23.467,29.902 22.618,30.763 22.618,31.822 C22.618,31.857 22.615,31.892 22.612,31.926 C23.040,32.959 23.315,34.073 23.409,35.238 L25.591,35.238 C25.686,34.056 25.968,32.927 26.407,31.881 C26.406,31.861 26.404,31.842 26.404,31.822 ZM39.630,16.925 C38.849,14.447 36.601,12.782 34.035,12.782 C30.797,12.782 28.162,15.453 28.162,18.737 L28.162,29.031 C30.130,26.721 33.038,25.257 36.277,25.257 C38.830,25.257 41.176,26.167 43.019,27.682 L39.630,16.925 ZM36.277,27.040 C31.334,27.040 27.313,31.117 27.313,36.129 C27.313,41.140 31.334,45.218 36.277,45.218 C41.221,45.218 45.242,41.140 45.242,36.129 C45.242,31.117 41.221,27.040 36.277,27.040 ZM41.893,37.072 C41.408,37.067 41.018,36.664 41.023,36.172 L41.023,36.129 C41.023,35.637 41.417,35.238 41.902,35.238 C42.388,35.238 42.781,35.637 42.781,36.129 L42.781,36.190 C42.776,36.679 42.384,37.072 41.902,37.072 C41.899,37.072 41.896,37.072 41.893,37.072 ZM41.430,40.152 C40.188,41.786 38.310,42.723 36.277,42.723 C32.691,42.723 29.773,39.765 29.773,36.129 C29.773,32.493 32.691,29.535 36.277,29.535 C36.763,29.535 37.156,29.934 37.156,30.426 C37.156,30.918 36.763,31.317 36.277,31.317 C33.660,31.317 31.531,33.475 31.531,36.129 C31.531,38.782 33.660,40.941 36.277,40.941 C37.760,40.941 39.131,40.257 40.038,39.064 C40.335,38.674 40.887,38.602 41.271,38.903 C41.655,39.203 41.727,39.763 41.430,40.152 ZM18.339,37.048 C17.854,37.043 17.464,36.640 17.469,36.148 L17.469,36.129 C17.469,35.637 17.862,35.238 18.348,35.238 C18.833,35.238 19.227,35.637 19.227,36.129 L19.226,36.165 C19.222,36.654 18.829,37.048 18.348,37.048 C18.345,37.048 18.342,37.048 18.339,37.048 ZM18.110,39.824 C16.896,41.639 14.883,42.723 12.723,42.723 C9.136,42.723 6.219,39.765 6.219,36.129 C6.219,32.493 9.136,29.535 12.723,29.535 C13.208,29.535 13.602,29.934 13.602,30.426 C13.602,30.918 13.208,31.317 12.723,31.317 C10.106,31.317 7.977,33.475 7.977,36.129 C7.977,38.782 10.106,40.941 12.723,40.941 C14.299,40.941 15.769,40.149 16.655,38.825 C16.927,38.417 17.474,38.311 17.875,38.587 C18.277,38.863 18.382,39.417 18.110,39.824 Z"/>
<path fill-rule="evenodd"  fill-opacity="0" fill="rgb(26, 26, 37)"
 d="M0.000,0.000 L66.000,0.000 L66.000,66.000 L0.000,66.000 L0.000,0.000 Z"/>
</svg>

<?xml version="1.0" encoding="utf-8"?>
<!-- Generator: Adobe Illustrator 21.1.0, SVG Export Plug-In . SVG Version: 6.00 Build 0)  -->
<svg version="1.1" id="Слой_1" xmlns="http://www.w3.org/2000/svg" xmlns:xlink="http://www.w3.org/1999/xlink" x="0px" y="0px"
	 viewBox="0 0 66 66" style="enable-background:new 0 0 66 66;" xml:space="preserve">
<style type="text/css">
	.st0{opacity:0.369;fill:#FFFFFF;enable-background:new    ;}
	.st1{opacity:0.4;fill:url(#SVGID_1_);}
	.st2{opacity:0.588;fill:#FFFFFF;enable-background:new    ;}
	.st3{opacity:0.3;fill:url(#SVGID_2_);}
	.st4{fill:#006FEB;}
	.st5{fill:#1A1A25;fill-opacity:0;}
</style>
<path class="st0" d="M38.5,21C50.9,21,61,31.1,61,43.5S50.9,66,38.5,66S16,55.9,16,43.5S26.1,21,38.5,21z"/>
<linearGradient id="SVGID_1_" gradientUnits="userSpaceOnUse" x1="-748.4778" y1="815.9778" x2="-748.4778" y2="816.9778" gradientTransform="matrix(45 0 0 -45 33720 36785)">
	<stop  offset="0" style="stop-color:#FFFFFF"/>
	<stop  offset="0.76" style="stop-color:#BDE4F4"/>
	<stop  offset="1" style="stop-color:#7BC8E9"/>
</linearGradient>
<path class="st1" d="M38.5,21C50.9,21,61,31.1,61,43.5S50.9,66,38.5,66S16,55.9,16,43.5S26.1,21,38.5,21z"/>
<path class="st2" d="M11,0c6.1,0,11,4.9,11,11s-4.9,11-11,11S0,17.1,0,11S4.9,0,11,0z"/>
<linearGradient id="SVGID_2_" gradientUnits="userSpaceOnUse" x1="-730.6818" y1="798.1818" x2="-730.6818" y2="799.1818" gradientTransform="matrix(22 0 0 -22 16086 17582)">
	<stop  offset="0" style="stop-color:#7BC8E9"/>
	<stop  offset="0.24" style="stop-color:#BDE4F4"/>
	<stop  offset="1" style="stop-color:#FFFFFF"/>
</linearGradient>
<path class="st3" d="M11,0c6.1,0,11,4.9,11,11s-4.9,11-11,11S0,17.1,0,11S4.9,0,11,0z"/>
<path class="st4" d="M36.3,47c-5.6,0-10.2-4.4-10.7-10h-2.2c-0.4,5.6-5.1,10-10.7,10C6.8,47,2,42.1,2,36.1c0-1.4,0.3-2.8,0.8-4.1
	c0,0,0,0,0,0l4.9-15.7c1-3.2,3.9-5.4,7.3-5.4c3,0,5.7,1.8,6.9,4.5c0.7-0.7,1.6-1.1,2.6-1.1c1,0,2,0.4,2.6,1.1C28.3,12.8,31,11,34,11
	c3.3,0,6.3,2.2,7.3,5.4l4.9,15.7c0,0,0,0.1,0,0.1c0.5,1.2,0.7,2.5,0.7,3.9C47,42.1,42.2,47,36.3,47z M20.9,18.7c0-3.3-2.6-6-5.9-6
	c-2.6,0-4.8,1.7-5.6,4.1L6,27.7c1.8-1.5,4.2-2.4,6.7-2.4c3.3,0,6.2,1.5,8.1,3.8V18.7z M12.7,27c-4.9,0-9,4.1-9,9.1c0,5,4,9.1,9,9.1
	c4.9,0,9-4.1,9-9.1C21.7,31.1,17.7,27,12.7,27z M26.4,18.7c0-0.2,0-0.6,0-0.7c0-1.1-0.8-1.9-1.9-1.9S22.6,17,22.6,18
	c0,0.1,0,0.5,0,0.7v9.9c0.6-0.3,1.2-0.5,1.9-0.5c0.7,0,1.3,0.2,1.9,0.5V18.7z M26.4,31.8c0-1.1-0.8-1.9-1.9-1.9s-1.9,0.9-1.9,1.9
	c0,0,0,0.1,0,0.1c0.4,1,0.7,2.1,0.8,3.3h2.2C25.7,34.1,26,32.9,26.4,31.8C26.4,31.9,26.4,31.8,26.4,31.8z M39.6,16.9
	c-0.8-2.5-3-4.1-5.6-4.1c-3.2,0-5.9,2.7-5.9,6V29c2-2.3,4.9-3.8,8.1-3.8c2.6,0,4.9,0.9,6.7,2.4L39.6,16.9z M36.3,27
	c-4.9,0-9,4.1-9,9.1c0,5,4,9.1,9,9.1c4.9,0,9-4.1,9-9.1C45.2,31.1,41.2,27,36.3,27z M41.9,37.1c-0.5,0-0.9-0.4-0.9-0.9v0
	c0-0.5,0.4-0.9,0.9-0.9c0.5,0,0.9,0.4,0.9,0.9v0.1C42.8,36.7,42.4,37.1,41.9,37.1C41.9,37.1,41.9,37.1,41.9,37.1z M41.4,40.2
	c-1.2,1.6-3.1,2.6-5.2,2.6c-3.6,0-6.5-3-6.5-6.6c0-3.6,2.9-6.6,6.5-6.6c0.5,0,0.9,0.4,0.9,0.9c0,0.5-0.4,0.9-0.9,0.9
	c-2.6,0-4.7,2.2-4.7,4.8c0,2.7,2.1,4.8,4.7,4.8c1.5,0,2.9-0.7,3.8-1.9c0.3-0.4,0.8-0.5,1.2-0.2C41.7,39.2,41.7,39.8,41.4,40.2z
	 M18.3,37c-0.5,0-0.9-0.4-0.9-0.9v0c0-0.5,0.4-0.9,0.9-0.9c0.5,0,0.9,0.4,0.9,0.9l0,0C19.2,36.7,18.8,37,18.3,37
	C18.3,37,18.3,37,18.3,37z M18.1,39.8c-1.2,1.8-3.2,2.9-5.4,2.9c-3.6,0-6.5-3-6.5-6.6c0-3.6,2.9-6.6,6.5-6.6c0.5,0,0.9,0.4,0.9,0.9
	c0,0.5-0.4,0.9-0.9,0.9c-2.6,0-4.7,2.2-4.7,4.8c0,2.7,2.1,4.8,4.7,4.8c1.6,0,3-0.8,3.9-2.1c0.3-0.4,0.8-0.5,1.2-0.2
	C18.3,38.9,18.4,39.4,18.1,39.8z"/>
<path class="st5" d="M0,0h66v66H0V0z"/>
</svg>
